roman-numeral-4.svg

<svg fill="currentColor" viewBox="0 0 24 24"><path d="m12 7 2 10h2l2-10h-2l-1 5-1-5zm-1 0v2h-1v6h1v2H7v-2h1V9H7V7z"/></svg>

<svg  viewBox="0 0 24 24" fill="currentColor"><path  d="M12 7L14 17H16L18 7H16L15 12L14 7H12M11 7V9H10V15H11V17H7V15H8V9H7V7H11Z"/></svg>
